X:1
T:O come hither - Nares
T:#
%%score 1 2 { ( 3 4 ) | 5 }
L:1/8
Q:1/4=48
M:4/4
K:Eb
V:1 treble nm="Soprano" snm="S"
V:2 treble nm="Alto" snm="A"
V:3 treble nm="Midi_20"
V:4 treble 
V:5 bass 
V:1
"^Psalm 66:14;\nPsalm 118:18\nPsalm 71:20""^James Nares\n(1715-1783)""^O come hither""^Larghetto" z8 | %1
w: |
 z8 | z2 BB (B/>A/)G z c | (B/>A/)G z e (d/>c/)B z G | AB (c>B) B2 B_d | %5
w: |O come hi\- * ther, come|hi\- * ther, and hear\- * ken, all|ye that fear * God! O come|
 (c/>B/)A z c (B/>A/)G z e | (B/>A/)G z G F (3(E/G/B/){B} A2 | G4 z4 || %8
w: hi\- * ther, and hear\- * ken, and|hear- * ken, all ye that * * *|God!|
[M:3/4]"^Andante"[Q:1/4=96] z B e2 d2 | (c=A) B2 z2 | G2 G2 G2 | %11
w: And I will|tell * you|what he hath|
[M:3/4][Q:1/4=96][Q:1/4=96][Q:1/4=96] c2 e2{d} c2 |{B} =A6 | B2 c2 d2 | (F2 e2) d2 |{d} c2 B2 =A2 | %16
w: done for *||what he hath|done, * hath|* for my|
{!fermata!=A} !fermata!B4 ||[M:4/4]"^tempo Imo"[Q:1/4=48] BB | %18
w: |O come|
[M:4/4][Q:1/4=48][Q:1/4=48][Q:1/4=48] eB z c (A/>G/)F z B | (B/>A/)G z e (d/>c/)B z G | %20
w: hi- ther, and hear\- * ken, come|hi\- * ther, and hear\- * ken, all|
 AB (c>B) !fermata!B4 ||[M:3/4] x8 |[M:3/4][Q:1/4=96][Q:1/4=96][Q:1/4=96] A2 _d2 c2 | (BG) A2 z2 | %24
w: ye that fear * God!||And I will|tell * you|
 F2 F2 F2 | B2 _d2{c} B2 |{A} G4 z2 | A2 B2 c2 | (E2 _d2) c2 |{c} B2 A2 G2 | !fermata!A6 || %31
w: what he hath|done for *||what he hath|done, * hath|* for my|soul.|
[M:4/4]"^Allegretto"[Q:1/4=80] z8 | z8 | z8 |[M:4/4][Q:1/4=80][Q:1/4=80][Q:1/4=80] z8 | z4 z2 z E | %36
w: ||||The|
 B3 c BGFE | (A>c B)A (AG) z2 | GBAG cd e (d/c/) | (B2 =A)B B2 z B | B3 c BGFE | _d2 (d>c) c2 cc | %42
w: Lord hath cha- sten'd and cor-|rec\- * * ted me, *|but he hath not giv'n me o- ver *|un\- * to death. The|Lord hath cha- sten'd and cor-|rec- ted * me, but he|
 B2{B} (AG/F/) =E_dcB | (A2 G>)F F2 z F | c3 =d c=AGF | e3 e d2 dd | e2 (cB) AGFE | %47
w: hath * * * giv'n me o- ver|un\- * to death. The|Lord hath cha- sten'd and cor-|rec- ted me, but he|hath not * giv'n me o- ver|
 A2{A} G2 F2 z e | dGFG (AB/c/ B)A | (G2 F>)E E2 z e | dGFG (AB/c/ B)A | (G2 F>)E E2 z2 | z8 | %53
w: un- * death, he|hath not giv'n me o\- * * * ver|un\- * to death. he|hath not giv'n me o\- * * * ver|un\- * to death.||
[Q:1/4=78] z8[Q:1/4=77][Q:1/4=76][Q:1/4=75][Q:1/4=74][Q:1/4=72] | %54
w: |
[Q:1/4=70] z8[Q:1/4=68][Q:1/4=68] ||"^Recit."[Q:1/4=60] GGGG c2 cd |{c} =B4 cccd | %57
w: |There- fore will I praise thee, O|* there- fore will I|
[Q:1/4=60][Q:1/4=60][Q:1/4=60] e2 e=A !fermata!B4 ||[M:3/4][Q:1/4=108] z2 z2 Bd | c2 B2 =A2 | %60
w: praise thee, O God.|Un- to|thee will I|
 B2 e2 d2 | (d2 c2) ce | d2 c2 B2 |[M:3/4][Q:1/4=108][Q:1/4=108][Q:1/4=108] e2 B2 c2 | _d>c d2 e2 | %65
w: sing, will I|sing, * un- to|thee will I|sing, I thou|Ho- ly One of|
 c>B A2 c2 | BA B2 c2 | A>G F2 Ac | B2 A2 G2 | A2 _d2 c2 | B2 e2 G2 | Ac B2 A2 | %72
w: Is- ra- el! Thou|Ho- ly One of|Is- ra- el, un- to|thee will I|sing, will I|sing, O Thou|Ho- ly One of|
 G>A B2"^Largo"[Q:1/4=80] e2 | Ac B3 A | G>F !fermata!E4 ||[M:4/4] x8 || %76
w: Is- ra- el, Thou|Ho- ly One of|Is- ra- el||
[M:4/4][Q:1/4=88][Q:1/4=88][Q:1/4=88] B3 B (BA) (GA) | B3 e (dc) B2 | B3 B (BA) (GA) | %79
w: Hal- le- lu\- * jah, *|Hal- le lu\- * jah,|Hal- le- lu\- * jah, *|
 (B2 c)_d (c>B) A2 |: c3 c (cA) (GA) | B3 B (BG) (FG) | (AB) (cd) e2 (EF) | (G2 F2) E2 z2 :| %84
w: Hal\- * le- lu\- * jah,|Hal- le- lu\- * jah, *|Hal- le- lu\- * jah, *|Hal\- * le\- * lu- jah, *|lu\- * jah.|
"^Largo"[Q:1/4=80] =A4 B4 | c4 B4 | e2 (dc) B2 (AG) |"^Adagio"[Q:1/4=72] (G2 F2) E4 |] %88
w: A- men,|A- men,|Hal- le\- * lu- jah, *|A\- * men.|
V:2
[K:C] z8 | z8 | z8 |[M:4/4] z8 | z8 | z8 |[M:4/4] z8 | z8 || z6 | z6 | z6 |[M:3/4] z6 | z6 | z6 | %14
w: ||||||||||||||
 z6 | z6 | z4 || z2 |[M:4/4] z8 | z8 | z8 || z8 |[M:3/4] z6 | z6 | z6 | z6 | z6 | z6 | z6 | %29
w: |||||||||||||||
[M:3/4] z6 | z6 || z8 | z8 | z8 |[M:4/4] z8 | z8 | z8 | z8 |[M:4/4] z8 | z8 | z8 |[M:4/4] z8 | z8 | %43
w: ||||||||||||||
 z8 | z8 |[M:4/4] z8 | z8 | z8 | z8 |[M:4/4] z8 | z8 | z8 | z8 |[M:4/4] z8 | z8 || z8 | z8 | %57
w: ||||||||||||||
[M:4/4] z8 || z6 | z6 | z6 | z6 | z6 |[M:3/4] z6 | z6 | z6 | z6 | z6 | z6 |[M:3/4] z6 | z6 | z6 | %72
w: |||||||||||||||
 z6 | z6 | z6 || z8 ||[K:Eb][M:4/4][K:treble] G3 G (GF) (EF) | G3 =A B2 B2 | G3 G (GF) (EF) | %79
w: ||||Hal- le- lu\- * jah, *|Hal- le lu- jah,|Hal- le- lu\- * jah, *|
 (G2 A)B A2 A2 |: A3 A (AF) (=EF) | G3 G (G_E) (DE) | (FG) A2 G2 E2 | (E2 D2) E2 z2 :| E4 D4 | %85
w: Hal\- * le- lu- jah,|Hal- le- lu\- * jah, *|Hal- le- lu\- * jah, *|Hal\- * le- lu- jah,|lu\- * jah.|A- men,|
 A4 G4 | G2 A2 G2 (FE) | (E2 D2) E4 |] %88
w: A- men,|Hal- le- lu- jah, *|A\- * men.|
V:3
 z [B,GB]2 [DB] Bc/>B/ c[Ad] | [Ge] [Ac]2 [GB] [Ad][Ge] [EF][DB] | %2
 [EG] [GB]2 [DB] [EB] [EG]2 [Ac] | [GB] [EG]2 [=Ae] [Bd] [DB]2 [EG] | AB c2 [GB]2 [EB][G_d] | %5
 [Ac] [EA]2 [Ac] [GB] G2 [Ge] | [GB] G2 [B,G] [CF][B,E] [CB][DA] | [EG]4 z4 || %8
[M:3/4] .[FB]2 .[F=Ae]2 .[FBd]2 | [Fc]2- [FB]2 z2 | G2 G2 G2 |[M:3/4] [Ec]2 [eg]3 [ce] | %12
 [Bd]2 [=Ac]4 | B2 c2 d2 | F2- [Fe]2 [Fd]2- | [Fd][Ec] [DB]2 [E=A]2 | !fermata![DB]4 || %17
[M:3/4] [DB]2 |[M:4/4] e B2 c Ac BB | BG z [=Ae] [FBd][DB] z [Ge]- | e2 c2 !fermata![EGB]4 || %21
[M:3/4] x8 |[M:3/4] [EA]2 [G_d]2 [Ac]2 | [Ee]4 z2 | F2 F2 F2 | [_DB]2 [F_d]3 [Bd] | %26
 [Ac]2 [GB]2 z2 | e6- | e2 _d2 c2- | cB [CA]2 [B,G]2 | !fermata![CA]6 ||[M:4/4] B2 ec BE eG | %32
 AG/A/ BA G2 z [Bg] | [Bf]2 ge d2 ec |[M:4/4] B2 cA GB e2- | e2 d2 e2 z E | B3 c B2 e2 | %37
 A2 BA AG z2 | GB AG cd ed/c/ | B2 =A2 B2 z B | B3 c BG FE | _d4 c2 c2 | B2{B} A>F =E_d cB | %43
 [FA]2 [=EG]2 [A,F]2 x2 | [=Ac]F [Ac][B=d] [Ac]A GF | e4 d2 d2 | e2 [Gc][FB] [E_A][DG] [CF][B,E] | %47
 A2 G2 Fd Ae | [Ad][Ge] F[=EG] Ac BA | G2 F2 E2 z e | [Ad][Ge] F[=EG] Ac BA | G2 F2 E2 x2 | %52
 x2 ge d2 ec | B2 cA GB"^rall." e2- | e2 d2 [Ge]2 z2 || [CEG]4 [CEGc]2 [CFc]2 | [DG=B]4 [EGc]4 | %57
 [EGce]2 [CEF=A]2 !fermata![B,DFB]4 ||[M:3/4] z6 | [Gc]2 [FB]2 [E=A]2 | [DB]2 e2 d2 | %61
 [Bd]2 [=Ac]2 ce | [Fd]2 [Ec]2 [DB]2 |[M:3/4] e2 B2 c2 | _d4 [Ge]2 | c2 A2 [Ec]2 | B4 c2 | %67
 A2 F2 [_EA]2 | [FB]2 [EA]2 [_DG]2 | [CA]2 _d2 c2 | B2 e2 [EG]2 | [CA]2 B2 A2 | G2 B2 [Ee]2 | %73
 [EA]2 B3 A | [EG]>[B,F] !fermata![G,E]4 ||[M:4/4] x8 ||[M:4/4] [B,EG]4 [GB]2 [EG]2 | %77
 [GB]3 [=Ae] [FBd]2 [DGB]2 | [B,GB]4 [GB]2 [EG]2 | [GB]3 [G_d] [EAc]2 [CEA]2 |: %80
 [Ac]4 [Ac][FA] [=EG][FA] | [GB]4 [GB][_EG] [DF][EG] | [FA]2 cd [Ge]2 [G,E]2 | %83
 [EG]2 [DF]2 [G,B,E]4 :| [E=A]4 [DB]4 | [Ac]4 [GB]4 | [Ge]2 dc [GB]2 [FA][EG] | %87
 [EG]2 [DF]2 [G,B,E]4 |] %88
V:4
 x4 E2 x2 | x8 | x8 | x8 | E2 EF x4 | x8 | x8 | x8 ||[M:3/4] x6 | x6 | x6 |[M:3/4] x6 | x6 | x6 | %14
 x6 | x6 | x4 ||[M:3/4] x2 |[M:4/4] EE/F/ G=E F A2 A | GE z E x4 | _AB [CE][DF] x4 ||[M:3/4] x8 | %22
[M:3/4] x6 | G2 A2 x2 | x6 | x6 | x6 | A2 B2 c2 | E3 G AE- | E_D x2 x2 | x6 || %31
[M:4/4] G2 E2 E2 E2- | E2 D2 E2 x2 | x2 G2 G2 E2 |[M:4/4] E3 D EG- G2 | F4 G2 z2 | %36
 z G/F/ ED E2 E2- | E2 D2 E2 z2 | x2 E2- EA BG | C4 D3 F | EA G2- G2 x2 | z G AB E2 FA | %42
 G2 F2 =E2 FG | x4 x2 z F- | F3 =E F2 x2 | z =A Bc B2 F2 | EG x2 x4 | DF E2 D2 E2 | x4 F4 | %49
 E3 D E2 A2 | x4 F4 | E3 D E2 z [Bg] | [Bf]2 G2 G2 E2 | E3 D EG- G2 | F4 E2 z2 || x8 | x8 | x8 || %58
[M:3/4] z6 | x6 | x2 F4 | x4 F2 | x6 |[M:3/4] E4 E2 | E2 B2 x2 | [EA]4 x2 | =E2 G2 E2 | [CF]4 x2 | %68
 x6 | x2 E4- | E4 x2 | x2 [B,F]4 | [B,EG]4 x2 | x2 D2 F2 | x6 ||[M:4/4] x8 ||[M:4/4] x4 B,4 | x8 | %78
 x4 B,4 | x8 |: x8 | x8 | x2 A2 x4 | x8 :| x8 | x8 | x2 A2 x4 | x4 x4 |] %88
V:5
 E,,E,/>D,/ E,F, G,A,/>G,/ A,F, | CA,/B,/ C/D/E/G,/ F,E, B,B,, | E,E,/>D,/ E,F, G,E,/>D,/ E,E,, | %3
 E,E,/>D,/ E,C, B,,B,/>=A,/ B,_D | CG, A,A,, E,G,/>F,/ G,E, | z C/>B,/ CA, z E/>D/ EE, | %6
 z E/>D/ EE, A,G, F,B,, | [E,,E,]4 z4 ||[M:3/4] .D2 .C2 .B,2 | (E2 D2) z2 | ED EF ED | %11
[M:3/4] C2 C,2 E,2 | F,2[I:staff -1] F2 E2 | DF CF B,F |[I:staff +1] =A,C A,F, B,2 | E,2 F,2 F,,2 | %16
 !fermata![B,,,B,,]4 ||[M:3/4] B,A, |[M:4/4] G,G,/F,/ =E,C, F,,F,/_E,/ D,B,, | %19
 E,,E,/>D,/ E,C, B,,B,/>=A,/ B,_D | CG, A,A,, !fermata![E,,E,]4 ||[M:3/4] x8 |[M:3/4] C2 B,2 A,2 | %23
 _D2 C2 z2 | _DC DE DC | B,4 B,,2 | E,2 E2 _D2 | CE B,E A,E | G,B, G,E, A,2 | _D,2 E,2 E,,2 | %30
 !fermata!A,,6 ||[M:4/4] E,,E,/F,/ G,A, G,2 C2 | F,2 B,,2 E,2 B,E | %33
 D/C/D/B,/ EC =B,/=A,/B,/G,/ C_A, |[M:4/4] G,/F,/G,/E,/ A,F, E,2- E,/F,/G,/A,/ | %35
 B,=A, B,B,, E,B,, E,,2 | z E,/F,/ G,A, G,2 C2 | F,2 B,,2 z E, G,B, | ED CB, A,F, G,E, | %39
 F,E, F,F,, B,,F, B,A, | G,F, E,2 E,,2 z2 | z E, F,G, A,G, A,F, | G,=E, D,_D CB, A,B, | %43
 CB, CC, F,C, F,,2- | F,,6 z2 | z F, G,=A, B,B,, B,_A, | G,E, ED CB, A,G, | F,D, E,E,, B,,B, CC, | %48
 B,,E, A,G, F,E, D,B,, | E,A, B,B,, C,C/=B,/ CC, | B,,E, A,G, F,E, D,B,, | E,A, B,B,, E,G, B,E | %52
 D/C/D/B,/ EC =B,/=A,/B,/G,/ C_A, | G,/F,/G,/E,/ A,F, E,2- E,/F,/G,/A,/ | B,2 B,,2 [E,,E,]2 z2 || %55
 [C,,C,]4 [A,,,A,,]4 | [G,,,G,,]4 [C,,C,]4 | C,2 [C,,F,,C,]2 [B,,,F,,B,,]4 ||[M:3/4] z6 | %59
 E2 D2 C2 | B,2 =A,2 B,2 | F,4 =A,2 | B,4 _A,2 |[M:3/4] G,4 A,2 | B,2 G,2 E,2 | A,2 A,,2 A,2 | %66
 G,2 =E,2 C,2 | F,4 C2 | _D2 C2 B,2 | A,2 G,2 A,2 | E,2 G,2 E,2 | F,2 D,2 B,,2 | E,4 G,2 | %73
 F,2 B,2 B,,2 | !fermata![E,,E,]6 ||[M:4/4] x8 ||[M:4/4] [E,,E,]8 | [E,,E,]2 [C,,C,]2 [B,,,B,,]4 | %78
 [E,,E,]8 | [E,,E,]4 [A,,,A,,]4 |: [A,,A,]4 [C,C]4 | [G,,G,]4 [B,,B,]4 | [F,,F,]4 [E,,E,]4 | %83
 [B,,B,]4 [E,,E,]4 :| [C,F,]4 [B,,F,]4 | [D,F,]4 [E,G,]4 | [E,B,]2 [F,D]2 [G,E]2 [A,C]2 | %87
 B,2 [B,,A,]2 [E,,B,,E,]4 |] %88

